Sweet-Rainbow/icons/pgadmin.svg

<?xml version="1.0" encoding="UTF-8" standalone="no"?>
<!-- Generator: Gravit.io -->

<svg
   xmlns:dc="http://purl.org/dc/elements/1.1/"
   xmlns:cc="http://creativecommons.org/ns#"
   xmlns:rdf="http://www.w3.org/1999/02/22-rdf-syntax-ns#"
   xmlns:svg="http://www.w3.org/2000/svg"
   xmlns="http://www.w3.org/2000/svg"
   xmlns:sodipodi="http://sodipodi.sourceforge.net/DTD/sodipodi-0.dtd"
   xmlns:inkscape="http://www.inkscape.org/namespaces/inkscape"
   style="isolation:isolate"
   viewBox="0 0 36 36"
   width="48"
   height="48"
   version="1.1"
   id="svg9"
   sodipodi:docname="pgadmin.svg"
   inkscape:version="0.92.4 (5da689c313, 2019-01-14)">
  <metadata
     id="metadata15">
    <rdf:RDF>
      <cc:Work
         rdf:about="">
        <dc:format>image/svg+xml</dc:format>
        <dc:type
           rdf:resource="http://purl.org/dc/dcmitype/StillImage" />
        <dc:title></dc:title>
      </cc:Work>
    </rdf:RDF>
  </metadata>
  <defs
     id="defs13" />
  <sodipodi:namedview
     pagecolor="#ffffff"
     bordercolor="#666666"
     borderopacity="1"
     objecttolerance="10"
     gridtolerance="10"
     guidetolerance="10"
     inkscape:pageopacity="0"
     inkscape:pageshadow="2"
     inkscape:window-width="640"
     inkscape:window-height="480"
     id="namedview11"
     showgrid="false"
     inkscape:zoom="29.365243"
     inkscape:cx="25.325443"
     inkscape:cy="32"
     inkscape:current-layer="svg9"
     units="px" />
  <linearGradient
     id="_lgradient_9"
     x1="0.061897106"
     y1="0.14716151"
     x2="0.99042481"
     y2="0.98658085"
     gradientTransform="matrix(47,0,0,43.633,0.5,2.183)"
     gradientUnits="userSpaceOnUse">
    <stop
       offset="0%"
       stop-opacity="1"
       style="stop-color:rgb(22,181,228)"
       id="stop2" />
    <stop
       offset="98.26086956521739%"
       stop-opacity="1"
       style="stop-color:rgb(245,32,250)"
       id="stop4" />
  </linearGradient>
  <g
     id="g826"
     transform="matrix(0.7659592,0,0,0.7659592,-0.382879,-0.38321936)">
    <path
       id="path7"
       d="m 26,36.317 v 1.5 1 c 0,1.655 -1.344,3 -3,3 h -3 c -1.656,0 -3,-1.076 -3,-2.4 v 0 c 0,-0.595 0.407,-1.115 1.015,-1.382 0.106,1.001 0.955,1.782 1.985,1.782 v 0 c 1.104,0 2,-0.896 2,-2 v 0 -9 c 0,-1.06 -0.42,-2.08 -1.17,-2.83 -0.75,-0.75 -1.77,-1.17 -2.83,-1.17 v -2 0 c 0,-1.104 -0.896,-2 -2,-2 v 0 c -1.104,0 -2,0.896 -2,2 v 0 0.657 c -0.468,0.188 -0.945,0.35 -1.433,0.491 -0.603,0.173 -1.236,0.255 -1.869,0.265 C 9.952,24.241 9.217,24.036 8.583,23.648 7.838,23.137 7.235,22.443 6.826,21.646 6.51,21.074 6.244,20.482 6.03,19.869 5.764,19.123 5.55,18.357 5.386,17.591 4.957,15.579 4.702,13.546 4.6,11.503 4.559,10.829 4.579,10.155 4.661,9.491 4.712,9.093 4.814,8.705 4.957,8.327 5.029,8.143 5.121,7.959 5.223,7.785 5.305,7.642 5.396,7.509 5.509,7.397 5.611,7.275 5.723,7.172 5.846,7.07 5.979,6.968 6.122,6.876 6.275,6.794 6.653,6.59 7.061,6.457 7.48,6.396 8.277,6.274 9.094,6.243 9.891,6.304 c 0.745,0.051 1.471,0.153 2.196,0.307 0.739,0.156 1.474,0.337 2.199,0.541 -0.342,0.749 -0.514,1.572 -0.514,2.411 v 3.064 c 0,0.868 0.552,1.644 1.369,1.93 0.174,0.062 0.327,0.164 0.439,0.317 0.153,0.255 0.225,0.552 0.235,0.858 v 0 c 0.023,1.127 0.956,2.025 2.084,2.002 v 0 c 1.127,-0.023 2.024,-0.956 2.002,-2.084 v 0 C 19.88,14.578 19.564,13.536 19.002,12.627 18.685,12.167 18.297,11.769 17.858,11.432 V 9.563 c 0,-0.542 0.214,-1.063 0.603,-1.441 0.377,-0.388 0.898,-0.602 1.44,-0.602 h 8.171 c 0.542,0 1.062,0.214 1.44,0.602 0.389,0.378 0.603,0.899 0.603,1.441 v 1.848 c -0.449,0.327 -0.827,0.736 -1.134,1.195 -0.572,0.92 -0.888,1.962 -0.909,3.044 v 0 c -0.022,1.128 0.875,2.061 2.002,2.084 v 0 c 1.128,0.023 2.061,-0.875 2.084,-2.002 v 0 c 0.01,-0.317 0.092,-0.623 0.245,-0.899 0.102,-0.122 0.225,-0.214 0.378,-0.255 0.838,-0.276 1.42,-1.063 1.42,-1.951 V 9.563 c 0,-0.839 -0.172,-1.661 -0.514,-2.411 0.574,-0.161 1.152,-0.306 1.729,-0.439 0.654,-0.143 1.318,-0.256 1.982,-0.337 0.807,-0.102 1.624,-0.133 2.431,-0.082 0.47,0.031 0.929,0.123 1.369,0.276 0.214,0.071 0.418,0.163 0.623,0.276 0.153,0.091 0.296,0.194 0.439,0.306 0.122,0.112 0.245,0.245 0.347,0.378 0.123,0.163 0.225,0.327 0.307,0.511 0.183,0.378 0.316,0.776 0.377,1.195 0.113,0.745 0.154,1.501 0.103,2.267 -0.092,2.043 -0.358,4.076 -0.777,6.088 -0.173,0.766 -0.388,1.532 -0.653,2.278 -0.215,0.613 -0.48,1.205 -0.787,1.777 -0.419,0.797 -1.021,1.491 -1.757,2.002 -0.643,0.388 -1.368,0.593 -2.114,0.582 -0.633,-0.01 -1.267,-0.092 -1.88,-0.265 C 34.94,23.825 34.465,23.663 34,23.476 v 0 -0.659 0 c 0,-1.104 -0.896,-2 -2,-2 v 0 c -1.104,0 -2,0.896 -2,2 v 0 2 c -1.06,0 -2.08,0.42 -2.83,1.17 -0.631,0.631 -1.029,1.453 -1.139,2.33 H 25 24.5 c -0.552,0 -1,0.448 -1,1 v 0 c 0,0.552 0.448,1 1,1 h 0.5 1 v 0 1 0 h -1 -0.5 c -0.552,0 -1,0.448 -1,1 v 0 c 0,0.552 0.448,1 1,1 h 0.5 1 v 1 h -1 -0.5 c -0.552,0 -1,0.448 -1,1 v 0 c 0,0.552 0.448,1 1,1 H 25 Z m 7.006,-8.858 c 0.43,0.171 0.87,0.313 1.317,0.438 0.95,0.266 1.941,0.409 2.932,0.419 1.563,0.02 3.085,-0.419 4.402,-1.246 1.318,-0.899 2.39,-2.094 3.126,-3.504 0.408,-0.756 0.756,-1.542 1.042,-2.349 0.316,-0.909 0.582,-1.828 0.786,-2.768 0.47,-2.216 0.756,-4.474 0.868,-6.741 C 47.53,10.676 47.49,9.644 47.326,8.613 47.204,7.795 46.958,6.999 46.591,6.253 46.386,5.834 46.141,5.436 45.865,5.068 45.59,4.711 45.283,4.374 44.946,4.077 44.599,3.781 44.221,3.516 43.823,3.291 43.404,3.046 42.965,2.852 42.515,2.699 41.729,2.433 40.912,2.27 40.084,2.218 39.022,2.157 37.949,2.188 36.897,2.321 36.09,2.413 35.304,2.556 34.517,2.729 33.516,2.954 32.526,3.219 31.555,3.526 L 30.386,3.887 C 29.658,3.59 28.873,3.434 28.072,3.434 h -8.171 c -0.796,0 -1.577,0.154 -2.301,0.448 L 16.448,3.526 C 15.284,3.168 14.109,2.862 12.924,2.617 12.026,2.423 11.116,2.3 10.207,2.229 9.094,2.137 7.97,2.188 6.867,2.351 5.989,2.484 5.141,2.77 4.355,3.189 3.987,3.383 3.64,3.608 3.323,3.863 2.996,4.108 2.7,4.394 2.434,4.69 2.159,5.007 1.924,5.344 1.709,5.691 1.484,6.059 1.301,6.447 1.147,6.846 0.882,7.54 0.698,8.265 0.606,8.991 0.504,9.9 0.473,10.809 0.524,11.708 c 0.102,2.267 0.399,4.525 0.868,6.741 0.205,0.94 0.46,1.859 0.787,2.768 0.276,0.807 0.623,1.593 1.042,2.349 0.735,1.41 1.808,2.605 3.125,3.504 1.308,0.827 2.84,1.266 4.393,1.246 1.001,-0.01 1.981,-0.153 2.941,-0.419 0.444,-0.125 0.884,-0.268 1.314,-0.439 0.056,0.065 0.115,0.128 0.176,0.189 0.75,0.75 1.77,1.17 2.83,1.17 v 5 h -1 c -1.06,0 -2.08,0.42 -2.83,1.17 -0.75,0.75 -1.17,1.77 -1.17,2.83 v 4 c 0,1.06 0.42,2.08 1.17,2.83 0.75,0.75 1.77,1.17 2.83,1.17 h 9 c 1.06,0 2.08,-0.42 2.83,-1.17 0.75,-0.75 1.17,-1.77 1.17,-2.83 v -4 -7 c 0,-1.104 0.475,-2 1.06,-2 0,0 1.02,-0.42 1.77,-1.17 0.061,-0.061 0.119,-0.124 0.176,-0.188 z M 31.11,27.314"
       style="fill:url(#_lgradient_9);fill-rule:evenodd"
       inkscape:connector-curvature="0" />
  </g>
</svg>

<?xml version="1.0" encoding="UTF-8" standalone="no"?><!-- Generator: Gravit.io --><svg xmlns="http://www.w3.org/2000/svg" xmlns:xlink="http://www.w3.org/1999/xlink" style="isolation:isolate" viewBox="0 0 48 48" width="48pt" height="48pt"><linearGradient id="_lgradient_9" x1="0.061897106109324806" y1="0.14716151924516707" x2="0.9904248356713994" y2="0.9865808764728623" gradientTransform="matrix(47,0,0,43.633,0.5,2.183)" gradientUnits="userSpaceOnUse"><stop offset="0%" stop-opacity="1" style="stop-color:rgb(22,181,228)"/><stop offset="98.26086956521739%" stop-opacity="1" style="stop-color:rgb(245,32,250)"/></linearGradient><path d=" M 26 36.317 L 26 37.817 L 26 38.817 C 26 40.472 24.656 41.817 23 41.817 L 20 41.817 C 18.344 41.817 17 40.741 17 39.417 L 17 39.417 C 17 38.822 17.407 38.302 18.015 38.035 C 18.121 39.036 18.97 39.817 20 39.817 L 20 39.817 C 21.104 39.817 22 38.921 22 37.817 L 22 37.817 L 22 28.817 C 22 27.757 21.58 26.737 20.83 25.987 C 20.08 25.237 19.06 24.817 18 24.817 L 18 22.817 L 18 22.817 C 18 21.713 17.104 20.817 16 20.817 L 16 20.817 C 14.896 20.817 14 21.713 14 22.817 L 14 22.817 L 14 23.474 C 13.532 23.662 13.055 23.824 12.567 23.965 C 11.964 24.138 11.331 24.22 10.698 24.23 C 9.952 24.241 9.217 24.036 8.583 23.648 C 7.838 23.137 7.235 22.443 6.826 21.646 C 6.51 21.074 6.244 20.482 6.03 19.869 C 5.764 19.123 5.55 18.357 5.386 17.591 C 4.957 15.579 4.702 13.546 4.6 11.503 C 4.559 10.829 4.579 10.155 4.661 9.491 C 4.712 9.093 4.814 8.705 4.957 8.327 C 5.029 8.143 5.121 7.959 5.223 7.785 C 5.305 7.642 5.396 7.509 5.509 7.397 C 5.611 7.275 5.723 7.172 5.846 7.07 C 5.979 6.968 6.122 6.876 6.275 6.794 C 6.653 6.59 7.061 6.457 7.48 6.396 C 8.277 6.274 9.094 6.243 9.891 6.304 C 10.636 6.355 11.362 6.457 12.087 6.611 C 12.826 6.767 13.561 6.948 14.286 7.152 C 13.944 7.901 13.772 8.724 13.772 9.563 L 13.772 12.627 C 13.772 13.495 14.324 14.271 15.141 14.557 C 15.315 14.619 15.468 14.721 15.58 14.874 C 15.733 15.129 15.805 15.426 15.815 15.732 L 15.815 15.732 C 15.838 16.859 16.771 17.757 17.899 17.734 L 17.899 17.734 C 19.026 17.711 19.923 16.778 19.901 15.65 L 19.901 15.65 C 19.88 14.578 19.564 13.536 19.002 12.627 C 18.685 12.167 18.297 11.769 17.858 11.432 L 17.858 9.563 C 17.858 9.021 18.072 8.5 18.461 8.122 C 18.838 7.734 19.359 7.52 19.901 7.52 L 28.072 7.52 C 28.614 7.52 29.134 7.734 29.512 8.122 C 29.901 8.5 30.115 9.021 30.115 9.563 L 30.115 11.411 C 29.666 11.738 29.288 12.147 28.981 12.606 C 28.409 13.526 28.093 14.568 28.072 15.65 L 28.072 15.65 C 28.05 16.778 28.947 17.711 30.074 17.734 L 30.074 17.734 C 31.202 17.757 32.135 16.859 32.158 15.732 L 32.158 15.732 C 32.168 15.415 32.25 15.109 32.403 14.833 C 32.505 14.711 32.628 14.619 32.781 14.578 C 33.619 14.302 34.201 13.515 34.201 12.627 L 34.201 9.563 C 34.201 8.724 34.029 7.902 33.687 7.152 C 34.261 6.991 34.839 6.846 35.416 6.713 C 36.07 6.57 36.734 6.457 37.398 6.376 C 38.205 6.274 39.022 6.243 39.829 6.294 C 40.299 6.325 40.758 6.417 41.198 6.57 C 41.412 6.641 41.616 6.733 41.821 6.846 C 41.974 6.937 42.117 7.04 42.26 7.152 C 42.382 7.264 42.505 7.397 42.607 7.53 C 42.73 7.693 42.832 7.857 42.914 8.041 C 43.097 8.419 43.23 8.817 43.291 9.236 C 43.404 9.981 43.445 10.737 43.394 11.503 C 43.302 13.546 43.036 15.579 42.617 17.591 C 42.444 18.357 42.229 19.123 41.964 19.869 C 41.749 20.482 41.484 21.074 41.177 21.646 C 40.758 22.443 40.156 23.137 39.42 23.648 C 38.777 24.036 38.052 24.241 37.306 24.23 C 36.673 24.22 36.039 24.138 35.426 23.965 C 34.94 23.825 34.465 23.663 34 23.476 L 34 23.476 L 34 22.817 L 34 22.817 C 34 21.713 33.104 20.817 32 20.817 L 32 20.817 C 30.896 20.817 30 21.713 30 22.817 L 30 22.817 L 30 24.817 C 28.94 24.817 27.92 25.237 27.17 25.987 C 26.539 26.618 26.141 27.44 26.031 28.317 L 25 28.317 L 24.5 28.317 C 23.948 28.317 23.5 28.765 23.5 29.317 L 23.5 29.317 C 23.5 29.869 23.948 30.317 24.5 30.317 L 25 30.317 L 26 30.317 L 26 30.317 L 26 31.317 L 26 31.317 L 25 31.317 L 24.5 31.317 C 23.948 31.317 23.5 31.765 23.5 32.317 L 23.5 32.317 C 23.5 32.869 23.948 33.317 24.5 33.317 L 25 33.317 L 26 33.317 L 26 34.317 L 25 34.317 L 24.5 34.317 C 23.948 34.317 23.5 34.765 23.5 35.317 L 23.5 35.317 C 23.5 35.869 23.948 36.317 24.5 36.317 L 25 36.317 L 26 36.317 Z  M 33.006 27.459 C 33.436 27.63 33.876 27.772 34.323 27.897 C 35.273 28.163 36.264 28.306 37.255 28.316 C 38.818 28.336 40.34 27.897 41.657 27.07 C 42.975 26.171 44.047 24.976 44.783 23.566 C 45.191 22.81 45.539 22.024 45.825 21.217 C 46.141 20.308 46.407 19.389 46.611 18.449 C 47.081 16.233 47.367 13.975 47.479 11.708 C 47.53 10.676 47.49 9.644 47.326 8.613 C 47.204 7.795 46.958 6.999 46.591 6.253 C 46.386 5.834 46.141 5.436 45.865 5.068 C 45.59 4.711 45.283 4.374 44.946 4.077 C 44.599 3.781 44.221 3.516 43.823 3.291 C 43.404 3.046 42.965 2.852 42.515 2.699 C 41.729 2.433 40.912 2.27 40.084 2.218 C 39.022 2.157 37.949 2.188 36.897 2.321 C 36.09 2.413 35.304 2.556 34.517 2.729 C 33.516 2.954 32.526 3.219 31.555 3.526 L 30.386 3.887 C 29.658 3.59 28.873 3.434 28.072 3.434 L 19.901 3.434 C 19.105 3.434 18.324 3.588 17.6 3.882 L 16.448 3.526 C 15.284 3.168 14.109 2.862 12.924 2.617 C 12.026 2.423 11.116 2.3 10.207 2.229 C 9.094 2.137 7.97 2.188 6.867 2.351 C 5.989 2.484 5.141 2.77 4.355 3.189 C 3.987 3.383 3.64 3.608 3.323 3.863 C 2.996 4.108 2.7 4.394 2.434 4.69 C 2.159 5.007 1.924 5.344 1.709 5.691 C 1.484 6.059 1.301 6.447 1.147 6.846 C 0.882 7.54 0.698 8.265 0.606 8.991 C 0.504 9.9 0.473 10.809 0.524 11.708 C 0.626 13.975 0.923 16.233 1.392 18.449 C 1.597 19.389 1.852 20.308 2.179 21.217 C 2.455 22.024 2.802 22.81 3.221 23.566 C 3.956 24.976 5.029 26.171 6.346 27.07 C 7.654 27.897 9.186 28.336 10.739 28.316 C 11.74 28.306 12.72 28.163 13.68 27.897 C 14.124 27.772 14.564 27.629 14.994 27.458 C 15.05 27.523 15.109 27.586 15.17 27.647 C 15.92 28.397 16.94 28.817 18 28.817 L 18 33.817 L 17 33.817 C 15.94 33.817 14.92 34.237 14.17 34.987 C 13.42 35.737 13 36.757 13 37.817 L 13 41.817 C 13 42.877 13.42 43.897 14.17 44.647 C 14.92 45.397 15.94 45.817 17 45.817 L 26 45.817 C 27.06 45.817 28.08 45.397 28.83 44.647 C 29.58 43.897 30 42.877 30 41.817 L 30 37.817 L 30 30.817 C 30 29.713 30.475 28.817 31.06 28.817 C 31.06 28.817 32.08 28.397 32.83 27.647 C 32.891 27.586 32.949 27.523 33.006 27.459 L 33.006 27.459 L 33.006 27.459 L 33.006 27.459 Z  M 31.11 27.314" fill-rule="evenodd" fill="url(#_lgradient_9)"/></svg>
